X:1
T:Title
%%score { 1 | 2 }
L:1/8
M:3/4
K:Ab
V:1 treble nm="Grand Piano"
V:2 bass 
V:1
 z2 z2[Q:1/4=100] [CE][CA] | [Ec]3 [Ec] [Fd][Ec] | [Ec]2 [CA]2 [CA][Ec] | B3 G FG | %4
[M:2/4] B2 [CA]2 |[M:1/4] [CE][CA] |[M:3/4] [Ec]3 [Ec] [Fd][Ec] | [Ec]2 [CA]2 [CA][Ec] | %8
 [DB]3 [DF] [DG]>[DB] |[M:2/4] [CA]4 |[M:1/4] EE |[M:3/4] d3 B GE | c2 [CA]2 [Ec][Ec] | %13
 [=Dc]3 [DB] [DA]>[DF] |[M:2/4] E4 |[M:1/4] [CE][CA] |[M:3/4] [Ec]3 [Ec] [Fd][Ec] | %17
 [Ec]2 [CA]2 [CA][Ec] | [DB]3 [DF] [DG]>[DB] |[M:2/4] [CA]4 |] %20
V:2
 z2 z2 [A,,A,][A,,A,] | [A,,A,]3 [A,,A,] [A,,A,][A,,A,] | [A,,A,]2 [A,,A,]2 [A,,A,][A,,A,] | %3
 [E,G,E]3 [E,B,D] [E,A,D][E,B,D] |[M:2/4] [E,G,D]2 [A,,A,]2 |[M:1/4] [A,,A,][A,,A,] | %6
[M:3/4] [A,,A,]3 [A,,A,] [A,,A,][A,,A,] | [A,,A,]2 [A,,A,]2 [A,,A,][A,,A,] | %8
 [D,F,]3 [B,,B,] [E,B,]>[E,G,] |[M:2/4] [A,,A,]4 |[M:1/4] [E,G,][E,G,] | %11
[M:3/4] [E,B,E]3 [E,G,E] [E,B,E][E,G,] | [A,E]2 [A,,E,]2 [A,,A,][A,,A,] | %13
 [B,,F,]3 [B,,F,] [B,,B,]>[B,,A,] |[M:2/4] [E,G,]4 |[M:1/4] [A,,A,][A,,A,] | %16
[M:3/4] [A,,A,]3 [A,,A,] [A,,A,][A,,A,] | [A,,A,]2 [A,,A,]2 [A,,A,][A,,A,] | %18
 [D,F,]3 [B,,B,] [E,B,]>[E,G,] |[M:2/4] [A,,A,]4 |] %20

